X:1088
T:Jenny Dang the Weaver
T:Patsy Touhey's Rip The Calico
R:reel
H:See also #292, #1093.
H:"Jenny Dang the Weaver" is the original title on Touhey's recording.
D:Peter Carberry & Padraig McGovern: Forgotten Gems
D:The Mulcahy Family: The Reel Note
D:Patsy Touhey
Z:id:hn-reel-1088
M:C|
L:1/8
K:D
~B3A B2dB | ABdf efdB | ~A3F A2FA | ABdf efdf |
eBBA B2dB | ABdf efdB | ~A3F A2FA | ABdf e2fe ||
d2fd egfe | defa g2fe | d2fd efge | faaf gefe |
d2fd egfe | defa g2dg | bgaf gfed | (3Bcd ef gfed ||

